X:19
T:Twin Sisters
T:Fiddler's Lock
M:4/8
L:1/8
K:G
P:A
D2 |: G2 BG ABcA | B2 g2 d4 | cBAc BA G2 | ABAG F2 D2 |
G2 BG ABcA | B2 g2 d4 | cBAc BA G2 | A2 F2 G4 :|
P:B
|:g2 g2 f2 d2 | efge d4 | efge dBGB | ABAG F2 D2 |
g2 g2 f2 d2 | efge d4| cBAc BA GB | A2 F2 G4 :|

